X: 22295
T: La Reel Des Acadiens
R: reel
M: 4/4
K: Amajor
|:af|e2ce aece|fece feaf|e2ce feaf|ecAc B2af|
e2ce aece|fece feaf|e2ce feaf|ecBc A2:|
|:cB|ABcd e3a|feaf ecBc|ABcd e3a|fecA B2cB|
ABcd e3a|feaf ecBc|ABcd e2af|ecBc A2:|

